!! 00000] TT[WS
!!!OTL: Nao wugeng
!!!ARE: Asia, China, Shanxi Lingxian
!! Ethnic Group: Han
!! WII, 124 (2)
!!!SCT: J0591
!!!YEM: Copyright 1995, estate of Helmut Schaffrath.
**kern
*ICvox
*Ivox
*M2/4
*k[f#]
*G:
{8g
8a
8b
8g
=1
4a
4a
=2
4b
4b
=3
8a
8b
8a
8g
=4
2e}
=5
{8g
4g
8a
=6
8b
8dd
8b
8a
=7
8b
8dd
8a
8g
=8
2e}
=9
{8a
8g
4e
=10
4g
8b
8a
=11
8g
8b
8a
8g
=12
8a
4d
8e
=13
8g
8g
8a
8e
=14
2d}
==
!!!AGN: Xiaodiao. Qingge, Aisu
!!!ONB: ESAC (Essen Associative Code) Database: CHINA
!!!AMT: simple duple
!!!AIN: vox
!!!EED: Helmut Schaffrath
!!!EEV: 1.0
*-
